Simply-Black-Circles/scalable/apps/bitcoin128.svg

<svg xmlns="http://www.w3.org/2000/svg" width="48" height="48" viewBox="0 0 12.7 12.7"><path d="M6.34.07a6.29 6.29 0 0 0-6.29 6.3 6.29 6.29 0 0 0 6.3 6.28 6.29 6.29 0 0 0 6.28-6.29A6.29 6.29 0 0 0 6.34.07zm-.01.94a5.4 5.4 0 0 1 5.4 5.4 5.4 5.4 0 0 1-5.4 5.41 5.4 5.4 0 0 1-5.41-5.4A5.4 5.4 0 0 1 6.32 1zm-1.28.89v1.48H3.2v.74h.62c.35 0 .45.25.49.41V8.2c-.01.1 0 .37-.24.38H3.2v.74h1.85v1.48l.74-.01V9.32h.73l.03 1.48h.74l-.02-1.48C9.5 9.32 9.5 8.2 9.5 7.65c0-.56-.23-1.3-1.11-1.3.5 0 .74-.84.74-1.48 0-.84-.74-1.49-1.85-1.49V1.9h-.74v1.48h-.75V1.9h-.74zm.74 2.22c.75 0 1.86 0 1.86.93s-1.11.93-1.86.93V4.12zm0 2.6c1.49 0 2.23 0 2.23.93s-.74.93-2.23.93V6.72z" fill="#1a1a1a"/></svg>

<?xml version="1.0" encoding="UTF-8" standalone="no"?>
<svg
   xmlns:dc="http://purl.org/dc/elements/1.1/"
   xmlns:cc="http://creativecommons.org/ns#"
   xmlns:rdf="http://www.w3.org/1999/02/22-rdf-syntax-ns#"
   xmlns:svg="http://www.w3.org/2000/svg"
   xmlns="http://www.w3.org/2000/svg"
   xmlns:sodipodi="http://sodipodi.sourceforge.net/DTD/sodipodi-0.dtd"
   xmlns:inkscape="http://www.inkscape.org/namespaces/inkscape"
   width="48"
   height="48"
   viewBox="0 0 12.7 12.7"
   version="1.1"
   id="svg4"
   sodipodi:docname="bitcoin128.svg"
   inkscape:version="0.92.4 (5da689c313, 2019-01-14)">
  <metadata
     id="metadata10">
    <rdf:RDF>
      <cc:Work
         rdf:about="">
        <dc:format>image/svg+xml</dc:format>
        <dc:type
           rdf:resource="http://purl.org/dc/dcmitype/StillImage" />
        <dc:title></dc:title>
      </cc:Work>
    </rdf:RDF>
  </metadata>
  <defs
     id="defs8" />
  <sodipodi:namedview
     pagecolor="#ffffff"
     bordercolor="#666666"
     borderopacity="1"
     objecttolerance="10"
     gridtolerance="10"
     guidetolerance="10"
     inkscape:pageopacity="0"
     inkscape:pageshadow="2"
     inkscape:window-width="1087"
     inkscape:window-height="480"
     id="namedview6"
     showgrid="false"
     inkscape:zoom="4.9166667"
     inkscape:cx="2.1355932"
     inkscape:cy="24"
     inkscape:window-x="0"
     inkscape:window-y="25"
     inkscape:window-maximized="0"
     inkscape:current-layer="svg4" />
  <path
     d="M 6.34,0.07 A 6.29,6.29 0 0 0 0.05,6.37 6.29,6.29 0 0 0 6.35,12.65 6.29,6.29 0 0 0 12.63,6.36 6.29,6.29 0 0 0 6.34,0.07 Z M 6.33,1.01 a 5.4,5.4 0 0 1 5.4,5.4 5.4,5.4 0 0 1 -5.4,5.41 A 5.4,5.4 0 0 1 0.92,6.42 5.4,5.4 0 0 1 6.32,1 Z M 5.05,1.9 V 3.38 H 3.2 v 0.74 h 0.62 c 0.35,0 0.45,0.25 0.49,0.41 V 8.2 C 4.3,8.3 4.31,8.57 4.07,8.58 H 3.2 V 9.32 H 5.05 V 10.8 L 5.79,10.79 V 9.32 H 6.52 L 6.55,10.8 H 7.29 L 7.27,9.32 C 9.5,9.32 9.5,8.2 9.5,7.65 9.5,7.09 9.27,6.35 8.39,6.35 8.89,6.35 9.13,5.51 9.13,4.87 9.13,4.03 8.39,3.38 7.28,3.38 V 1.9 H 6.54 V 3.38 H 5.79 V 1.9 Z m 0.74,2.22 c 0.75,0 1.86,0 1.86,0.93 0,0.93 -1.11,0.93 -1.86,0.93 z m 0,2.6 c 1.49,0 2.23,0 2.23,0.93 0,0.93 -0.74,0.93 -2.23,0.93 z"
     id="path2"
     inkscape:connector-curvature="0"
     style="fill:#1a1a1a" />
</svg>
